X:1
T:Athole Volunteers March
T:Athole Volunteers March
T:Niel Gow (1727-1809)
C:Niel Gow (1727-1809)
L:1/8
M:4/4
K:F
V:1 treble 
V:1
 C2 | F2 F>F c2 c>c | (f3/2g/4a/4) gf (ed)(cB) | A>F c>A f>cd>A | B2 G>G G2 (c/B/A/G/) | %5
 F2 F>F c2 c>c | (f3/2g/4a/4) gf ed c2 | dB b>g a>fg>e | f2 f>f f2 :| (fg/a/) b3 g{fg} a3 f | %10
 (fg/a/) gf (ed)(cB) | A>F c>A f>cd>A | B2 G>G G2"^tr" f>g | a>gfa g>feg | f>edf ed c2 | %15
 dBb>g a>fg>e | f2 f>f f2 (fg/a/) | b3 g{fg} a3 f | (fg/a/) gf (ed)(cB) | A>F c>A f>cd>A | %20
 B2 G>G G2 (c/B/A/G/) | F2 F>F c2 c>c | (f3/2g/4a/4) gf ed c2 | dB b>g a>fg>e | f2 f>f f2 || abc | %26

